X:21155 
T:ON THE SLY (reel)
B:DMI.0639
Z:Nordberg/Black
R:reel
%Q:1/4=180
M:C|
L:1/8
K:G
"A dorian"
gf|eAA2 egdc|BAGA Bcdf|eAA2 egdc|BAGB A2gf|
eAA2 egdc|BAGA Bcd2|eaag egdc|BAGB A2||
dc|BGBd g3a|bgaf ged2|eaag a2ga|bgaf gedc|
BGBd g3a|bgaf gfed|eaag egdc|BAGB A4|]

%%%

